X:1
T:game of trhone
T:Game of Thrones
T:Violin
L:1/8
M:3/4
K:Eb
V:1 treble nm="Violín" snm="Vln."
V:1
 G2 C2 EF | G2 C2 EF | G2 C2 EF | G2 C2 EF | G2 C2 =EF | G2 C2 =EF | G2 C2 =EF | G2 C2 =EF | G6 | %9
 C6 | EF G4 | C4 EF | D6 | A,2 B,C D2 | G,2 B,C D2 | G,2 B,C D2 | G,2 B,C z2 | F6 | B,6 | ED F4 | %20
 B,6 | ED C4 | C2 G,2 A,B, | C2 G,2 A,B, | C2 G,2 A,B, | C2 G,2 A,B, | G6 | C6 | EF G4 | C4 EF | %30
 D6 | G,2 B,C D2 | G,2 B,C D2 | G,2 B,C D2 | G,2 B,C z2 | F6 | B,6 | ED F4 | B,4 ED | C6 | %40
 C2 G,2 A,B, | C2 G,2 A,B, | C2 G,2 A,B, | C2 G,2 A,B, | g6 | c6 | ef g4 | c4 ef | d6 | z6 | f6 | %51
 B6 | d2 e2 d2 | B2 c4- | z6 | c4 z2 | c6 | B6 | A,6 | E6 | F6 | EF G4 | z2 z2 z2 | c6 | B6 | C6 | %66
 G6 | A,6 | e6 | d6 | z6 | c2 G2 AB | c2 G2 AB | c2 G2 AB | c2 G2 AB | c2 G2 AB | c2 G2 z z | z6 |] %78

